X:1
T:Far From Home
M:C|
L:1/8
R:reel
K:G
(BA)|GEDEG2(GA)|B2~(BA)(Bc)d2|GEDEG2(GB)|AGAB AGEF|
~(GE)(DE)G2(GA)|B2~(BA)(Bc)d2|edef gedc|BGAFG2|]
(3def|g2~(ge)f2(fd)|edef edBd|~(ge)dBG2B2|~(AG)AB AGE2|
~(GE)DEG2GA|B2~(BA) (Bc)d2|edef gedc|BGAFG2|]
</abc>
